docs/inc/icons/clippy.svg

<svg height="16" viewBox="0 0 14 16" width="14" xmlns="http://www.w3.org/2000/svg"><path d="m2 13h4v1h-4zm5-6h-5v1h5zm2 3v-2l-3 3 3 3v-2h5v-2zm-4.5-1h-2.5v1h2.5zm-2.5 3h2.5v-1h-2.5zm9 1h1v2c-.02.28-.11.52-.3.7s-.42.28-.7.3h-10c-.55 0-1-.45-1-1v-11c0-.55.45-1 1-1h3c0-1.11.89-2 2-2s2 .89 2 2h3c.55 0 1 .45 1 1v5h-1v-3h-10v9h10zm-9-8h8c0-.55-.45-1-1-1h-1c-.55 0-1-.45-1-1s-.45-1-1-1-1 .45-1 1-.45 1-1 1h-1c-.55 0-1 .45-1 1z" fill-rule="evenodd"/></svg>

<svg xmlns="http://www.w3.org/2000/svg" width="14" height="16" viewBox="0 0 14 16"><path fill-rule="evenodd" d="M2 13h4v1H2v-1zm5-6H2v1h5V7zm2 3V8l-3 3 3 3v-2h5v-2H9zM4.5 9H2v1h2.5V9zM2 12h2.5v-1H2v1zm9 1h1v2c-.02.28-.11.52-.3.7-.19.18-.42.28-.7.3H1c-.55 0-1-.45-1-1V4c0-.55.45-1 1-1h3c0-1.11.89-2 2-2 1.11 0 2 .89 2 2h3c.55 0 1 .45 1 1v5h-1V6H1v9h10v-2zM2 5h8c0-.55-.45-1-1-1H8c-.55 0-1-.45-1-1s-.45-1-1-1-1 .45-1 1-.45 1-1 1H3c-.55 0-1 .45-1 1z"/></svg>
